!!!OTL@@DE: J&auml;gerleben
!!!ONB: Volksweise von Gehricke?
!!!ODT: 1827
!!!OMD: Lebhaft
!!!LYR: Bornemann, Wilhelm
!!!LDT: 1816
!!!OCL: Erk, Ludwig
!!!GCO: Deutscher Liederschatz, Band 1
**kern	**kern	**kern
*staff3	*staff2	*staff1
*Ipiano	*Ipiano	*Ivox
*>[A,B,B]	*>[A,B,B]	*>[A,B,B]
*>norep[A,B]	*>norep[A,B]	*>norep[A,B]
*>A	*>A	*>A
*clefF4	*clefG2	*clefG2
*k[b-e-]	*k[b-e-]	*k[b-e-]
*B-:	*B-:	*B-:
*M6/8	*M6/8	*M6/8
*MM84	*MM84	*MM84
8r	8d/ 8f/	8f/
=1	=1	=1
4BB-\ 4F\	(8d/ 8f/L	4f/
.	8B-/)	.
8r	8d/ 8f/J	8f/
4BB-\ 4F\	(8c/ 8e-/ 8f/L	4f/
.	8A/)	.
8r	8c/ 8e-/ 8f/J	8f/
=2	=2	=2
4BB-\ 4F\	(8d/ 8f/L	4.f/
.	8B-/)	.
8r	(8d/ 8f/J	.
4BB-\ 4F\	8d/L	4d/
.	8B-/)	.
8r	8d/ 8f/J	8f/
=3	=3	=3
4BB-\ 4B-\	(8f/ 8b-/L	4b-\
.	8d/)	.
8r	8f/ 8b-/J	8b-\
4BB-\ 4B-\	(8f/ 8b-/L	4b-\
.	8d/)	.
8r	8f/ 8b-/J	8b-\
=4	=4	=4
4.BB-\ 4.B-\	(8f/ 8dd/L	(4dd\
.	8d/)	.
.	8f/ 8cc/J	8cc\)
4E-\ 4B-\	(8g/ 8b-/L	8b-/L
.	8f/) 8a/	8a/J
8E-\ 8B-\	8e-/ 8g/J	8g/
=5	=5	=5
4F\ 4B-\	4d/ 4f/	4f/
8F\ 8B-\	8d/ 8f/	8f/
*^	*^	*
(8A/L	4F\	(8f/L	4e-\	8f/L
8B-/	.	8g/	.	8g/J
*	*	*v	*v	*
8c/J)	8F\	8e-/ 8a/J)	8a/
*v	*v	*	*
=6	=6	=6
4BB-\ 4B-\	4d/ 4b-/	[4.b-\
8B-\	8d/ 8f/	.
4BB-/	4d/ 4f/ 4b-/	8b-\]
.	.	8r
*clefG2	*	*
8e-/ 8b-/	8ee-\ 8gg\	8g/
=7	=7	=7
4f/ 4b-/	4dd\ 4ff\	4f/
8f/ 8b-/	8dd\ 8ff\	8f/
*^	*^	*
(8a/L	4f\	(8ff/L	4ee-\	8f/L
8b-/)	.	8gg/)	.	8g/J
*v	*v	*	*	*
8f/ 8cc/J	8aa/J	8ee-\	8a/
*	*v	*v	*
=8	=8	=8
4B-/ 4b-/	4dd\ 4bb-\	[4.b-\
8b-/	8dd\ 8ff\	.
4B-/	4dd\ 4bb-\	8b-\]
.	.	8r
8r	8d/ 8f/	8f/
*clefF4	*	*
=9	=9	=9
8BB-\L	4d/ 4f/	4f/
8F\	.	.
8B-\J	8d/ 8f/	8f/
8BB-\L	4d/ 4f/	4f/
8F\	.	.
8B-\J	8d/ 8f/	8f/
=10	=10	=10
8BB-\L	4d/ (4f/	(4f/
8F\	.	.
8B-\J	8dd\)	8dd\)
8BB-\L	4d/ 4b-/	4b-\
8F\	.	.
8B-\J	8f/ 8a/	8a/
=11	=11	=11
8E-\L	4e-/ 4g/	4g/
8G\	.	.
8B-\J	8e-/ 8g/	8g/
8E-\L	4e-/ 4g/	4g/
8G\	.	.
8B-\J	8e-/ 8g/	8g/
=12	=12	=12
8E-\L	4e-/ (4g/	(4g/
8G\	.	.
8c\J	8ee-\)	8ee-\)
8E-\L	4e-/ 4cc/	4cc\
8G\	.	.
8c\J	8b-\	8b-\
=13	=13	=13
8F\L	4e-/ 4a/	4a/
8A\	.	.
8c\J	8a/	8a/
*^	*	*
(8c/L	4.F\	(8a\L	8a/L
8d/)	.	8b-\)	8b-/J
8e-/J	.	8cc\J	8cc\
*v	*v	*	*
=14	=14	=14
4BB-/	(8d/ 8dd/L	(4.dd\
.	8f/)	.
8r	8b-/ 8dd/J	.
4E-\	(8g/ 8cc/L	8ee-\L
.	8e-/)	8dd\J)
8r	8g/ 8cc/J	8cc\
=15	=15	=15
4F\	(8d/ 8b-/L	4b-\
.	8f/)	.
8r	8d/ 8b-/J	8b-\
4FF/ 4F/	(8c/ 8e-/ 8a/L	4a/
.	8f/)	.
8r	8c/ 8e-/ 8a/J	8a/
=16	=16	=16
[4.BB-\ [4.F\	(8d/ 8b-/L	4.b-\
.	8f/)	.
.	8f/ 8dd/J	.
4BB-\] 4F\]	4d/ 4b-/	4r
=!|:	=!|:	=!|:
*>B	*>B	*>B
8r	8d/ 8f/	8f/
=17	=17	=17
*^	*	*
4r	4BB-\	(8d/ 8f/L	8f/L
.	.	8B-/)	8d/J
8F/	8r	8d/ 8f/J	8f/
(8F/L	4BB-\	4d/ 4b-/	4b-\
8D/	.	.	.
8F/J)	8r	8d/ 8b-/	8b-\
=18	=18	=18	=18
4B-/	4BB-\	(8d/ 8b-/L	8b-/L
.	.	8f/)	8f/J
8B-/	8r	8d/ 8b-/J	8b-\
(8B-/L	4BB-\	4f/ 4dd/	4dd\
8F/	.	.	.
8B-/J)	8r	8f/ 8dd/	8dd\
*v	*v	*	*
=19	=19	=19
4E-\ 4G\	(8e-/ 8cc/L	4cc\
.	8g/)	.
8r	8e-/ 8cc/J	8cc\
4F\	(8c/ 8e-/ 8a/L	4a/
.	8f/)	.
8r	8c/ 8e-/ 8a/J	8a/
=20	=20	=20
[4.BB-\ [4.F\	(8d/ 8b-/L	4.b-\
.	8f/)	.
.	8f/ 8dd/J	.
4BB-\] 4F\]	4d/ 4b-/	4r
==:|!	==:|!	==:|!
*-	*-	*-
!!!ENC: Craig Stuart Sapp
!!!END: 2004/06/27/
!!!EFL: 153/651
